assets/images/stars.svg

<svg width="86" height="15" viewBox="0 0 86 15" fill="none" xmlns="http://www.w3.org/2000/svg">
<path d="M7.86328 1.04297L9.4834 4.66309C9.5269 4.76023 9.59727 4.93453 9.72266 5.07324C9.82031 5.18134 9.93976 5.26734 10.0723 5.32617C10.2426 5.4017 10.4293 5.41457 10.5361 5.42578L14.4941 5.8418C14.579 5.85072 14.6525 5.85903 14.7168 5.86621C14.6693 5.90937 14.6156 5.95921 14.5527 6.01562L11.5967 8.66895C11.5174 8.74013 11.372 8.86065 11.2783 9.02246C11.2057 9.14788 11.1599 9.2877 11.1445 9.43262C11.1248 9.61881 11.1711 9.80178 11.1934 9.90625L12.0186 13.7842C12.0363 13.8675 12.0514 13.9398 12.0645 14.0029C12.0074 13.9706 11.9417 13.934 11.8662 13.8906L8.41895 11.9102C8.34872 11.8698 8.2421 11.8035 8.11621 11.7568L7.98438 11.7188L7.87695 11.7012C7.76923 11.6899 7.66011 11.6963 7.55371 11.7188H7.55273C7.37074 11.7574 7.21272 11.8564 7.11914 11.9102L3.67188 13.8906C3.59628 13.9341 3.52981 13.9696 3.47266 14.002C3.48563 13.939 3.5009 13.8671 3.51855 13.7842L4.34473 9.90625C4.36135 9.82815 4.39077 9.70586 4.39648 9.57129L4.39258 9.43359L4.37598 9.3252C4.35325 9.21901 4.31333 9.1167 4.25879 9.02246L4.18066 8.90918C4.09684 8.80388 4.00115 8.72257 3.94141 8.66895L0.985352 6.01562C0.922351 5.95906 0.867863 5.90945 0.820312 5.86621C0.884821 5.85901 0.958687 5.85076 1.04395 5.8418L5.00098 5.42578C5.10775 5.41456 5.29525 5.40187 5.46582 5.32617C5.59857 5.26724 5.71799 5.181 5.81543 5.07324C5.94066 4.93459 6.01111 4.76047 6.05469 4.66309L7.6748 1.04297C7.71054 0.963108 7.7413 0.8938 7.76855 0.833984C7.79583 0.893847 7.82751 0.963017 7.86328 1.04297Z" fill="#497FFF" stroke="#9BB9FF" stroke-width="1.2" stroke-linecap="round" stroke-linejoin="round"/>
<path d="M25.4009 1.04297L27.0211 4.66309C27.0646 4.76023 27.1349 4.93453 27.2603 5.07324C27.358 5.18134 27.4774 5.26734 27.6099 5.32617C27.7803 5.4017 27.967 5.41457 28.0738 5.42578L32.0318 5.8418C32.1167 5.85072 32.1902 5.85903 32.2545 5.86621C32.207 5.90937 32.1532 5.95921 32.0904 6.01562L29.1343 8.66895C29.0551 8.74013 28.9097 8.86065 28.816 9.02246C28.7434 9.14788 28.6976 9.2877 28.6822 9.43262C28.6625 9.61881 28.7088 9.80178 28.731 9.90625L29.5562 13.7842C29.574 13.8675 29.5891 13.9398 29.6021 14.0029C29.545 13.9706 29.4793 13.934 29.4039 13.8906L25.9566 11.9102C25.8864 11.8698 25.7798 11.8035 25.6539 11.7568L25.522 11.7188L25.4146 11.7012C25.3069 11.6899 25.1978 11.6963 25.0914 11.7188H25.0904C24.9084 11.7574 24.7504 11.8564 24.6568 11.9102L21.2095 13.8906C21.1339 13.9341 21.0675 13.9696 21.0103 14.002C21.0233 13.939 21.0386 13.8671 21.0562 13.7842L21.8824 9.90625C21.899 9.82815 21.9284 9.70586 21.9341 9.57129L21.9302 9.43359L21.9136 9.3252C21.8909 9.21901 21.851 9.1167 21.7964 9.02246L21.7183 8.90918C21.6345 8.80388 21.5388 8.72257 21.4791 8.66895L18.523 6.01562C18.46 5.95906 18.4055 5.90945 18.358 5.86621C18.4225 5.85901 18.4963 5.85076 18.5816 5.8418L22.5386 5.42578C22.6454 5.41456 22.8329 5.40187 23.0035 5.32617C23.1362 5.26724 23.2556 5.181 23.3531 5.07324C23.4783 4.93459 23.5488 4.76047 23.5923 4.66309L25.2125 1.04297C25.2482 0.963108 25.279 0.8938 25.3062 0.833984C25.3335 0.893847 25.3652 0.963017 25.4009 1.04297Z" fill="#497FFF" stroke="#9BB9FF" stroke-width="1.2" stroke-linecap="round" stroke-linejoin="round"/>
<path d="M42.9385 1.04297L44.5587 4.66309C44.6022 4.76023 44.6725 4.93453 44.7979 5.07324C44.8956 5.18134 45.015 5.26734 45.1475 5.32617C45.3179 5.4017 45.5046 5.41457 45.6114 5.42578L49.5694 5.8418C49.6543 5.85072 49.7278 5.85903 49.7921 5.86621C49.7446 5.90937 49.6908 5.95921 49.628 6.01562L46.6719 8.66895C46.5927 8.74013 46.4473 8.86065 46.3536 9.02246C46.281 9.14788 46.2352 9.2877 46.2198 9.43262C46.2001 9.61881 46.2464 9.80178 46.2686 9.90625L47.0938 13.7842C47.1116 13.8675 47.1267 13.9398 47.1397 14.0029C47.0826 13.9706 47.0169 13.934 46.9415 13.8906L43.4942 11.9102C43.424 11.8698 43.3174 11.8035 43.1915 11.7568L43.0596 11.7188L42.9522 11.7012C42.8445 11.6899 42.7354 11.6963 42.629 11.7188H42.628C42.446 11.7574 42.288 11.8564 42.1944 11.9102L38.7471 13.8906C38.6715 13.9341 38.6051 13.9696 38.5479 14.002C38.5609 13.939 38.5762 13.8671 38.5938 13.7842L39.42 9.90625C39.4366 9.82815 39.466 9.70586 39.4717 9.57129L39.4678 9.43359L39.4512 9.3252C39.4285 9.21901 39.3886 9.1167 39.334 9.02246L39.2559 8.90918C39.1721 8.80388 39.0764 8.72257 39.0167 8.66895L36.0606 6.01562C35.9976 5.95906 35.9431 5.90945 35.8956 5.86621C35.9601 5.85901 36.0339 5.85076 36.1192 5.8418L40.0762 5.42578C40.183 5.41456 40.3705 5.40187 40.5411 5.32617C40.6738 5.26724 40.7932 5.181 40.8907 5.07324C41.0159 4.93459 41.0864 4.76047 41.1299 4.66309L42.7501 1.04297C42.7858 0.963108 42.8166 0.8938 42.8438 0.833984C42.8711 0.893847 42.9028 0.963017 42.9385 1.04297Z" fill="#497FFF" stroke="#9BB9FF" stroke-width="1.2" stroke-linecap="round" stroke-linejoin="round"/>
<path d="M60.4762 1.04297L62.0963 4.66309C62.1398 4.76023 62.2102 4.93453 62.3356 5.07324C62.4332 5.18134 62.5527 5.26734 62.6852 5.32617C62.8555 5.4017 63.0422 5.41457 63.149 5.42578L67.1071 5.8418C67.1919 5.85072 67.2654 5.85903 67.3297 5.86621C67.2823 5.90937 67.2285 5.95921 67.1656 6.01562L64.2096 8.66895C64.1303 8.74013 63.9849 8.86065 63.8912 9.02246C63.8186 9.14788 63.7728 9.2877 63.7574 9.43262C63.7377 9.61881 63.784 9.80178 63.8063 9.90625L64.6315 13.7842C64.6492 13.8675 64.6643 13.9398 64.6774 14.0029C64.6203 13.9706 64.5546 13.934 64.4791 13.8906L61.0319 11.9102C60.9616 11.8698 60.855 11.8035 60.7291 11.7568L60.5973 11.7188L60.4899 11.7012C60.3821 11.6899 60.273 11.6963 60.1666 11.7188H60.1656C59.9837 11.7574 59.8256 11.8564 59.7321 11.9102L56.2848 13.8906C56.2092 13.9341 56.1427 13.9696 56.0856 14.002C56.0985 13.939 56.1138 13.8671 56.1315 13.7842L56.9576 9.90625C56.9743 9.82815 57.0037 9.70586 57.0094 9.57129L57.0055 9.43359L56.9889 9.3252C56.9662 9.21901 56.9262 9.1167 56.8717 9.02246L56.7936 8.90918C56.7098 8.80388 56.6141 8.72257 56.5543 8.66895L53.5983 6.01562C53.5353 5.95906 53.4808 5.90945 53.4332 5.86621C53.4977 5.85901 53.5716 5.85076 53.6569 5.8418L57.6139 5.42578C57.7207 5.41456 57.9082 5.40187 58.0787 5.32617C58.2115 5.26724 58.3309 5.181 58.4283 5.07324C58.5536 4.93459 58.624 4.76047 58.6676 4.66309L60.2877 1.04297C60.3235 0.963108 60.3542 0.8938 60.3815 0.833984C60.4088 0.893847 60.4404 0.963017 60.4762 1.04297Z" fill="#497FFF" stroke="#9BB9FF" stroke-width="1.2" stroke-linecap="round" stroke-linejoin="round"/>
<path d="M78.0139 1.04297L79.634 4.66309C79.6775 4.76023 79.7478 4.93453 79.8732 5.07324C79.9709 5.18134 80.0903 5.26734 80.2228 5.32617C80.3932 5.4017 80.5799 5.41457 80.6867 5.42578L84.6447 5.8418C84.7296 5.85072 84.8031 5.85903 84.8674 5.86621C84.8199 5.90937 84.7661 5.95921 84.7033 6.01562L81.7473 8.66895C81.668 8.74013 81.5226 8.86065 81.4289 9.02246C81.3563 9.14788 81.3105 9.2877 81.2951 9.43262C81.2754 9.61881 81.3217 9.80178 81.3439 9.90625L82.1691 13.7842C82.1869 13.8675 82.202 13.9398 82.215 14.0029C82.1579 13.9706 82.0923 13.934 82.0168 13.8906L78.5695 11.9102C78.4993 11.8698 78.3927 11.8035 78.2668 11.7568L78.1349 11.7188L78.0275 11.7012C77.9198 11.6899 77.8107 11.6963 77.7043 11.7188H77.7033C77.5213 11.7574 77.3633 11.8564 77.2697 11.9102L73.8224 13.8906C73.7469 13.9341 73.6804 13.9696 73.6232 14.002C73.6362 13.939 73.6515 13.8671 73.6691 13.7842L74.4953 9.90625C74.5119 9.82815 74.5413 9.70586 74.5471 9.57129L74.5432 9.43359L74.5266 9.3252C74.5038 9.21901 74.4639 9.1167 74.4094 9.02246L74.3312 8.90918C74.2474 8.80388 74.1517 8.72257 74.092 8.66895L71.1359 6.01562C71.0729 5.95906 71.0184 5.90945 70.9709 5.86621C71.0354 5.85901 71.1093 5.85076 71.1945 5.8418L75.1516 5.42578C75.2583 5.41456 75.4458 5.40187 75.6164 5.32617C75.7491 5.26724 75.8686 5.181 75.966 5.07324C76.0912 4.93459 76.1617 4.76047 76.2053 4.66309L77.8254 1.04297C77.8611 0.963108 77.8919 0.8938 77.9191 0.833984C77.9464 0.893847 77.9781 0.963017 78.0139 1.04297Z" fill="#497FFF" stroke="#9BB9FF" stroke-width="1.2" stroke-linecap="round" stroke-linejoin="round"/>
</svg>

<svg xmlns="http://www.w3.org/2000/svg" width="86" height="15" fill="none"><path fill="#497FFF" stroke="#9BB9FF" stroke-linecap="round" stroke-linejoin="round" stroke-width="1.2" d="m7.863 1.043 1.62 3.62c.044.097.114.272.24.41.097.108.217.194.35.253.17.076.356.089.463.1l3.958.416.223.024-.164.15-2.956 2.653c-.08.071-.225.192-.319.353a1 1 0 0 0-.133.41c-.02.187.026.37.048.474l.826 3.878.046.219-.199-.112-3.447-1.98c-.07-.041-.177-.107-.303-.154l-.132-.038-.107-.018a1 1 0 0 0-.323.018h-.001c-.182.038-.34.137-.434.191l-3.447 1.98q-.114.065-.2.112l.047-.218.826-3.878c.016-.078.046-.2.051-.335l-.003-.137-.017-.109a1 1 0 0 0-.117-.303L4.18 8.91c-.084-.105-.18-.186-.24-.24L.985 6.016l-.165-.15.224-.024L5 5.426c.107-.011.294-.024.465-.1q.201-.09.35-.253c.125-.138.195-.313.239-.41l1.62-3.62q.053-.12.094-.209zM25.4 1.043l1.621 3.62c.044.097.114.272.24.41q.147.163.349.253c.17.076.357.089.464.1l3.958.416.223.024-.165.15-2.956 2.653c-.079.071-.224.192-.318.353a1 1 0 0 0-.134.41c-.02.187.027.37.049.474l.825 3.878.046.219-.198-.112-3.447-1.98c-.07-.041-.177-.107-.303-.154l-.132-.038-.107-.018a1 1 0 0 0-.324.018h0c-.183.038-.34.137-.434.191l-3.448 1.98q-.113.065-.199.112l.046-.218.826-3.878c.017-.078.046-.2.052-.335l-.004-.137-.016-.109a1 1 0 0 0-.118-.303l-.078-.113c-.084-.105-.18-.186-.239-.24l-2.956-2.653-.165-.15.224-.024 3.957-.416c.106-.011.294-.024.464-.1.133-.059.253-.145.35-.253.125-.138.196-.313.24-.41l1.62-3.62.093-.209q.041.09.095.209M42.939 1.043l1.62 3.62c.043.097.114.272.239.41q.149.163.35.253c.17.076.357.089.463.1l3.958.416.223.024-.164.15-2.956 2.653c-.08.071-.225.192-.318.353a1 1 0 0 0-.134.41c-.02.187.026.37.049.474l.825 3.878.046.219-.199-.112-3.447-1.98c-.07-.041-.177-.107-.303-.154l-.131-.038-.108-.018a1 1 0 0 0-.323.018h-.001c-.182.038-.34.137-.434.191l-3.447 1.98q-.113.065-.2.112l.047-.218.826-3.878c.017-.078.046-.2.052-.335l-.004-.137-.017-.109a1 1 0 0 0-.117-.303l-.078-.113c-.084-.105-.18-.186-.24-.24l-2.955-2.653-.165-.15.223-.024 3.957-.416c.107-.011.294-.024.465-.1q.201-.09.35-.253c.125-.138.195-.313.239-.41l1.62-3.62.094-.209zM60.476 1.043l1.62 3.62c.044.097.114.272.24.41.097.108.217.194.35.253.17.076.356.089.463.1l3.958.416.223.024-.164.15-2.956 2.653c-.08.071-.225.192-.319.353a1 1 0 0 0-.134.41c-.02.187.027.37.05.474l.825 3.878.045.219-.198-.112-3.447-1.98c-.07-.041-.177-.107-.303-.154l-.132-.038-.107-.018a1 1 0 0 0-.323.018h-.001c-.182.038-.34.137-.434.191l-3.447 1.98q-.114.065-.2.112l.047-.218.826-3.878c.016-.078.046-.2.051-.335l-.004-.137-.016-.109a1 1 0 0 0-.117-.303l-.078-.113c-.084-.105-.18-.186-.24-.24l-2.956-2.653-.165-.15.224-.024 3.957-.416c.107-.011.294-.024.465-.1a1 1 0 0 0 .35-.253c.125-.138.195-.313.239-.41l1.62-3.62q.053-.12.094-.209zM78.014 1.043l1.62 3.62c.043.097.114.272.24.41q.147.163.349.253c.17.076.357.089.464.1l3.958.416.222.024q-.07.064-.164.15l-2.956 2.653c-.079.071-.224.192-.318.353a1 1 0 0 0-.134.41c-.02.187.027.37.049.474l.825 3.878.046.219-.198-.112-3.447-1.98c-.07-.041-.177-.107-.303-.154l-.132-.038-.108-.018a1 1 0 0 0-.323.018h0c-.183.038-.34.137-.434.191l-3.448 1.98q-.113.065-.199.112l.046-.218.826-3.878c.017-.078.046-.2.052-.335l-.004-.137-.016-.109a1 1 0 0 0-.118-.303l-.078-.113c-.084-.105-.18-.186-.239-.24l-2.956-2.653-.165-.15.224-.024 3.957-.416c.106-.011.294-.024.464-.1.133-.059.253-.145.35-.253.125-.138.196-.313.24-.41l1.62-3.62.093-.209q.041.09.095.209"/></svg>
